desktop/jupii.svg

<?xml version="1.0" encoding="UTF-8" standalone="no"?>
<svg
   xmlns:dc="http://purl.org/dc/elements/1.1/"
   xmlns:cc="http://creativecommons.org/ns#"
   xmlns:rdf="http://www.w3.org/1999/02/22-rdf-syntax-ns#"
   xmlns:svg="http://www.w3.org/2000/svg"
   xmlns="http://www.w3.org/2000/svg"
   xmlns:xlink="http://www.w3.org/1999/xlink"
   xmlns:sodipodi="http://sodipodi.sourceforge.net/DTD/sodipodi-0.dtd"
   xmlns:inkscape="http://www.inkscape.org/namespaces/inkscape"
   width="48"
   height="48"
   viewBox="0 0 12.7 12.7"
   version="1.1"
   id="svg8"
   inkscape:version="1.0 (4035a4fb49, 2020-05-01)"
   sodipodi:docname="jupii-desktop2.svg">
  <defs
     id="defs2">
    <linearGradient
       id="jupii-front-bg"
       inkscape:collect="always">
      <stop
         id="stop949"
         offset="0"
         style="stop-color:#830dff;stop-opacity:1" />
      <stop
         id="stop951"
         offset="1"
         style="stop-color:#bf65ff;stop-opacity:1" />
    </linearGradient>
    <linearGradient
       gradientUnits="userSpaceOnUse"
       y2="39.435497"
       x2="35.210194"
       y1="28.974262"
       x1="24.196106"
       id="linearGradient1355"
       xlink:href="#jupii-shadow"
       inkscape:collect="always"
       gradientTransform="scale(0.26458333)" />
    <linearGradient
       inkscape:collect="always"
       id="jupii-shadow">
      <stop
         style="stop-color:#000000;stop-opacity:0.2"
         offset="0"
         id="stop1261" />
      <stop
         style="stop-color:#0a0000;stop-opacity:0"
         offset="1"
         id="stop1263" />
    </linearGradient>
    <linearGradient
       gradientUnits="userSpaceOnUse"
       y2="40.680859"
       x2="33.097435"
       y1="23.195217"
       x1="15.270481"
       id="linearGradient1353"
       xlink:href="#jupii-shadow"
       inkscape:collect="always"
       gradientTransform="scale(0.26458333)" />
    <linearGradient
       gradientUnits="userSpaceOnUse"
       y2="28.780704"
       x2="43.735245"
       y1="13.965716"
       x1="28.481182"
       id="linearGradient1351"
       xlink:href="#jupii-shadow"
       inkscape:collect="always"
       gradientTransform="scale(0.26458333)" />
    <linearGradient
       gradientUnits="userSpaceOnUse"
       y2="2.6544201"
       x2="2.5754004"
       y1="9.6635427"
       x1="10.142767"
       id="linearGradient988"
       xlink:href="#jupii-front-bg"
       inkscape:collect="always" />
  </defs>
  <sodipodi:namedview
     id="base"
     pagecolor="#ffffff"
     bordercolor="#666666"
     borderopacity="1.0"
     inkscape:pageopacity="0.0"
     inkscape:pageshadow="2"
     inkscape:zoom="6.6323975"
     inkscape:cx="-37.714309"
     inkscape:cy="71.006403"
     inkscape:document-units="px"
     inkscape:current-layer="layer1"
     inkscape:document-rotation="0"
     showgrid="false"
     units="px"
     inkscape:pagecheckerboard="false"
     inkscape:window-width="3840"
     inkscape:window-height="2065"
     inkscape:window-x="0"
     inkscape:window-y="0"
     inkscape:window-maximized="1" />
  <metadata
     id="metadata5">
    <rdf:RDF>
      <cc:Work
         rdf:about="">
        <dc:format>image/svg+xml</dc:format>
        <dc:type
           rdf:resource="http://purl.org/dc/dcmitype/StillImage" />
        <dc:title></dc:title>
      </cc:Work>
    </rdf:RDF>
  </metadata>
  <g
     sodipodi:insensitive="true"
     inkscape:label="background"
     inkscape:groupmode="layer"
     id="layer1">
    <path
       id="path941"
       d="M 5.8570748,11.610892 C 4.1362396,11.447603 2.6008857,10.446827 1.7421677,8.9287074 1.0693357,7.7392154 0.89313374,6.2802024 1.2609987,4.9444734 c 0.192079,-0.697441 0.532039,-1.357974 0.992733,-1.928852 0.164024,-0.203252 0.583961,-0.620318 0.7909173,-0.785508 1.8079481,-1.44308032 4.3334294,-1.55238232 6.2418095,-0.270144 0.3200903,0.215069 0.5315147,0.388727 0.7993705,0.656584 0.848988,0.848988 1.366937,1.920902 1.51806,3.141682 0.03169,0.255991 0.03129,0.939031 -6.96e-4,1.196777 -0.247175,1.991587 -1.531145,3.6310796 -3.4024303,4.3445346 -0.6991247,0.266552 -1.581055,0.383711 -2.3436879,0.311345 z"
       style="fill:#6600d0;fill-opacity:1;stroke-width:0.00423333;stroke-linecap:round;stroke-linejoin:round;stroke-opacity:0.2;paint-order:markers fill stroke" />
    <path
       style="fill:url(#linearGradient988);fill-opacity:1;stroke-width:0.00423334;stroke-linecap:round;stroke-linejoin:round;stroke-opacity:0.2;paint-order:markers fill stroke"
       d="M 5.8428301,11.356559 C 4.1219949,11.197058 2.5866409,10.219497 1.7279229,8.7365943 1.0550909,7.5746961 0.87888892,6.1495292 1.2467539,4.8447864 1.4388329,4.1635245 1.7787929,3.5183144 2.2394869,2.9606796 2.4035109,2.7621427 2.8234479,2.3547518 3.0304039,2.1933938 4.8383524,0.78379003 7.3638337,0.67702353 9.272214,1.9295166 c 0.3200902,0.2100799 0.5315146,0.3797093 0.79937,0.6413526 0.848988,0.8292932 1.366937,1.8763412 1.51806,3.0688015 0.03169,0.2500525 0.03129,0.9172474 -6.88e-4,1.1690142 -0.247175,1.9453863 -1.531145,3.5468461 -3.4024301,4.2437521 -0.6991247,0.260368 -1.581055,0.374809 -2.3436879,0.304122 z"
       id="path941-3" />
  </g>
  <g
     style="display:inline"
     sodipodi:insensitive="true"
     inkscape:groupmode="layer"
     id="layer2"
     inkscape:label="shadows">
    <path
       d="M 8.5126587,2.7202474 6.5820271,4.6503622 10.62054,9.2542154 A 5.2916651,5.1531457 0 0 0 11.641667,6.211507 5.2916651,5.1531457 0 0 0 11.576554,5.4079386 Z"
       style="display:inline;fill:url(#linearGradient1351);fill-opacity:1;stroke:none;stroke-width:0.00431242;stroke-opacity:0.2"
       id="ellipse53-2" />
    <path
       d="M 4.9650716,5.2353393 3.0344401,7.1659708 6.707084,11.352795 a 5.2916651,5.1531457 0 0 0 3.449919,-1.5626949 z"
       style="display:inline;fill:url(#linearGradient1353);fill-opacity:1;stroke:none;stroke-width:0.00431242;stroke-opacity:0.2"
       id="ellipse53-9" />
    <path
       d="M 8.44858,7.6806682 6.5184652,9.6107829 7.8667033,11.148157 A 5.2916651,5.1531457 0 0 0 10.466028,9.4500692 Z"
       style="display:inline;fill:url(#linearGradient1355);fill-opacity:1;stroke:none;stroke-width:0.00431242;stroke-opacity:0.2"
       id="ellipse53-7" />
  </g>
  <g
     style="display:inline"
     sodipodi:insensitive="true"
     inkscape:groupmode="layer"
     id="layer3"
     inkscape:label="lines">
    <path
       d="M 1.9823079,3.3021241 A 5.2916651,5.1531457 0 0 0 1.5094686,4.1299805 H 6.6409383 V 3.3021241 Z"
       style="display:inline;fill:#ffffff;fill-opacity:0.59216;stroke-width:0.264583;stroke-miterlimit:4;stroke-dasharray:none;paint-order:stroke fill markers"
       id="rect1156" />
    <path
       d="M 4.986259,5.8358196 V 6.663676 h 6.634738 a 5.2916651,5.1531457 0 0 0 0.02067,-0.452169 5.2916651,5.1531457 0 0 0 -0.01395,-0.3756874 z"
       style="display:inline;fill:#ffffff;fill-opacity:0.59216;stroke-width:0.264594;paint-order:stroke fill markers"
       id="rect1160" />
    <path
       d="m 1.5244548,8.3250733 a 5.2916651,5.1531457 0 0 0 0.4811075,0.8278564 h 4.635376 V 8.3250733 Z"
       style="display:inline;fill:#ffffff;fill-opacity:0.59216;stroke-width:0.264594;paint-order:stroke fill markers"
       id="rect1164" />
  </g>
  <g
     style="display:inline"
     sodipodi:insensitive="true"
     inkscape:groupmode="layer"
     id="layer4"
     inkscape:label="balls">
    <circle
       id="circle1158"
       style="display:inline;fill:#ffffff;stroke-width:0.264594;paint-order:normal"
       r="1.3622549"
       cy="-3.7160196"
       cx="-7.5772433"
       transform="scale(-1)" />
    <circle
       id="circle1162"
       style="display:inline;fill:#ffffff;stroke-width:0.264594;paint-order:normal"
       r="1.3622549"
       cy="6.2496867"
       cx="4.0500021" />
    <circle
       id="circle1166"
       style="display:inline;fill:#ffffff;stroke-width:0.264594;paint-order:normal"
       r="1.3622549"
       cy="-8.7389336"
       cx="-7.5772433"
       transform="scale(-1)" />
  </g>
</svg>

<?xml version="1.0" encoding="UTF-8"?>
<svg width="48" height="48" version="1.1" viewBox="0 0 12.7 12.7" xmlns="http://www.w3.org/2000/svg" xmlns:cc="http://creativecommons.org/ns#" xmlns:dc="http://purl.org/dc/elements/1.1/" xmlns:rdf="http://www.w3.org/1999/02/22-rdf-syntax-ns#" xmlns:xlink="http://www.w3.org/1999/xlink">
 <defs>
  <linearGradient id="linearGradient1355" x1="24.196" x2="35.21" y1="28.974" y2="39.435" gradientTransform="scale(.26458)" gradientUnits="userSpaceOnUse" xlink:href="#jupii-shadow"/>
  <linearGradient id="jupii-shadow">
   <stop stop-opacity=".2" offset="0"/>
   <stop stop-color="#0a0000" stop-opacity="0" offset="1"/>
  </linearGradient>
  <linearGradient id="linearGradient1353" x1="15.27" x2="33.097" y1="23.195" y2="40.681" gradientTransform="scale(.26458)" gradientUnits="userSpaceOnUse" xlink:href="#jupii-shadow"/>
  <linearGradient id="linearGradient1351" x1="28.481" x2="43.735" y1="13.966" y2="28.781" gradientTransform="scale(.26458)" gradientUnits="userSpaceOnUse" xlink:href="#jupii-shadow"/>
  <linearGradient id="linearGradient988" x1="10.143" x2="2.5754" y1="9.6635" y2="2.6544" gradientUnits="userSpaceOnUse">
   <stop stop-color="#830dff" offset="0"/>
   <stop stop-color="#bf65ff" offset="1"/>
  </linearGradient>
 </defs>
 <metadata>
  <rdf:RDF>
   <cc:Work rdf:about="">
    <dc:format>image/svg+xml</dc:format>
    <dc:type rdf:resource="http://purl.org/dc/dcmitype/StillImage"/>
   </cc:Work>
  </rdf:RDF>
 </metadata>
 <g stroke-linecap="round" stroke-linejoin="round" stroke-opacity=".2">
  <path d="m5.8571 11.611c-1.7208-0.16329-3.2562-1.1641-4.1149-2.6822-0.67283-1.1895-0.84903-2.6485-0.48117-3.9842 0.19208-0.69744 0.53204-1.358 0.99273-1.9289 0.16402-0.20325 0.58396-0.62032 0.79092-0.78551 1.8079-1.4431 4.3334-1.5524 6.2418-0.27014 0.32009 0.21507 0.53151 0.38873 0.79937 0.65658 0.84899 0.84899 1.3669 1.9209 1.5181 3.1417 0.03169 0.25599 0.03129 0.93903-6.96e-4 1.1968-0.24718 1.9916-1.5311 3.6311-3.4024 4.3445-0.69912 0.26655-1.5811 0.38371-2.3437 0.31134z" fill="#6600d0" stroke-width=".0042333" style="paint-order:markers fill stroke"/>
  <path d="m5.8428 11.357c-1.7208-0.1595-3.2562-1.1371-4.1149-2.62-0.67283-1.1619-0.84903-2.5871-0.48117-3.8918 0.19208-0.68126 0.53204-1.3265 0.99273-1.8841 0.16402-0.19854 0.58396-0.60593 0.79092-0.76729 1.8079-1.4096 4.3334-1.5164 6.2418-0.26388 0.32009 0.21008 0.53151 0.37971 0.79937 0.64135 0.84899 0.82929 1.3669 1.8763 1.5181 3.0688 0.03169 0.25005 0.03129 0.91725-6.88e-4 1.169-0.24718 1.9454-1.5311 3.5468-3.4024 4.2438-0.69912 0.26037-1.5811 0.37481-2.3437 0.30412z" fill="url(#linearGradient988)" stroke-width=".0042333" style="paint-order:markers fill stroke"/>
 </g>
 <g>
  <g>
   <path d="m8.5127 2.7202-1.9306 1.9301 4.0385 4.6039a5.2917 5.1531 0 0 0 1.0211-3.0427 5.2917 5.1531 0 0 0-0.065113-0.80357z" fill="url(#linearGradient1351)"/>
   <path d="m4.9651 5.2353-1.9306 1.9306 3.6726 4.1868a5.2917 5.1531 0 0 0 3.4499-1.5627z" fill="url(#linearGradient1353)"/>
   <path d="m8.4486 7.6807-1.9301 1.9301 1.3482 1.5374a5.2917 5.1531 0 0 0 2.5993-1.6981z" fill="url(#linearGradient1355)"/>
  </g>
  <g fill="#fff">
   <g fill-opacity=".59216">
    <path d="m1.9823 3.3021a5.2917 5.1531 0 0 0-0.47284 0.82786h5.1315v-0.82786z" stroke-width=".26458" style="paint-order:stroke fill markers"/>
    <path d="m4.9863 5.8358v0.82786h6.6347a5.2917 5.1531 0 0 0 0.02067-0.45217 5.2917 5.1531 0 0 0-0.01395-0.37569z" stroke-width=".26459" style="paint-order:stroke fill markers"/>
    <path d="m1.5245 8.3251a5.2917 5.1531 0 0 0 0.48111 0.82786h4.6354v-0.82786z" stroke-width=".26459" style="paint-order:stroke fill markers"/>
   </g>
   <g stroke-width=".26459">
    <circle transform="scale(-1)" cx="-7.5772" cy="-3.716" r="1.3623" style="paint-order:normal"/>
    <circle cx="4.05" cy="6.2497" r="1.3623" style="paint-order:normal"/>
    <circle transform="scale(-1)" cx="-7.5772" cy="-8.7389" r="1.3623" style="paint-order:normal"/>
   </g>
  </g>
 </g>
</svg>
